icons/assembly-filled.svg

<svg width="256" height="256" viewBox="0 0 256 256" fill="none" xmlns="http://www.w3.org/2000/svg">
<g clip-path="url(#clip0_382_469)">
<path d="M196 0H60C26.8629 0 0 26.8629 0 60V196C0 229.137 26.8629 256 60 256H196C229.137 256 256 229.137 256 196V60C256 26.8629 229.137 0 196 0Z" fill="#25344C"/>
<path d="M44.6832 90.0889H62.1089L88.2475 164.148H71.3664L66.4654 148.901H39.2376L34.3366 164.148H18L44.6832 90.0889ZM43.5941 136.376H62.6535L53.396 106.97L43.5941 136.376Z" fill="#F4F2ED"/>
<path d="M108.941 141.277C109.485 144.545 110.574 147.267 111.663 148.901C114.386 152.168 118.742 153.257 124.733 153.257C128.544 153.257 131.267 152.713 133.99 152.168C138.346 150.535 140.525 147.812 140.525 143.455C140.525 141.277 139.436 139.099 137.257 138.01C135.079 136.921 131.812 135.287 126.911 134.743L118.743 133.109C111.119 131.475 105.673 129.297 102.406 127.663C97.5049 124.396 94.7821 118.95 94.7821 111.871C94.7821 105.337 96.9603 99.8911 101.861 95.5346C106.762 91.1782 113.842 89 123.643 89C131.812 89 138.346 91.1782 143.792 94.99C149.238 98.8019 152.505 105.337 152.505 112.96H137.802C137.257 108.604 135.624 105.337 131.812 103.703C129.089 102.614 126.366 102.069 122.554 102.069C118.198 102.069 114.931 102.614 112.752 104.247C110.574 105.881 108.941 108.059 108.941 110.782C108.941 113.505 110.03 115.139 112.752 116.772C114.386 117.861 117.653 118.406 122.554 120.04L135.624 123.307C141.069 124.396 145.426 126.574 148.693 128.752C153.049 132.02 155.228 137.465 155.228 144C155.228 150.535 152.505 156.525 147.604 160.881C142.158 165.238 135.079 167.416 125.277 167.416C115.475 167.416 107.851 165.238 102.406 160.881C96.9603 156.525 94.2375 150.535 94.2375 142.911H108.941V141.277Z" fill="#F4F2ED"/>
<path d="M215.673 90.0889H238V164.148H223.297V114.049C223.297 112.416 223.297 110.782 223.297 108.059C223.297 105.336 223.297 103.703 223.297 102.069L209.139 164.148H193.891L179.733 102.069C179.733 103.703 179.733 105.336 179.733 108.059C179.733 110.782 179.733 112.416 179.733 114.049V164.148H165.03V90.0889H187.356L202.604 148.356L215.673 90.0889Z" fill="#F4F2ED"/>
</g>
<defs>
<clipPath id="clip0_382_469">
<rect width="256" height="256" fill="white"/>
</clipPath>
</defs>
</svg>

<svg xmlns="http://www.w3.org/2000/svg" width="256" height="256" fill="none"><g clip-path="url(#clip0_382_469)"><path fill="#25344C" d="M196 0H60C26.863 0 0 26.863 0 60v136c0 33.137 26.863 60 60 60h136c33.137 0 60-26.863 60-60V60c0-33.137-26.863-60-60-60"/><path fill="#F4F2ED" d="M44.683 90.089H62.11l26.139 74.059H71.366l-4.9-15.247H39.237l-4.901 15.247H18zm-1.089 46.287h19.06l-9.258-29.406zm65.347 4.901c.544 3.268 1.633 5.99 2.722 7.624 2.723 3.267 7.079 4.356 13.07 4.356 3.811 0 6.534-.544 9.257-1.089 4.356-1.633 6.535-4.356 6.535-8.713 0-2.178-1.089-4.356-3.268-5.445s-5.445-2.723-10.346-3.267l-8.168-1.634c-7.624-1.634-13.07-3.812-16.337-5.446-4.901-3.267-7.624-8.713-7.624-15.792 0-6.534 2.178-11.98 7.079-16.336C106.762 91.178 113.842 89 123.643 89c8.169 0 14.703 2.178 20.149 5.99s8.713 10.347 8.713 17.97h-14.703c-.545-4.356-2.178-7.623-5.99-9.257-2.723-1.089-5.446-1.634-9.258-1.634-4.356 0-7.623.545-9.802 2.178s-3.811 3.812-3.811 6.535 1.089 4.357 3.811 5.99c1.634 1.089 4.901 1.634 9.802 3.268l13.07 3.267c5.445 1.089 9.802 3.267 13.069 5.445 4.356 3.268 6.535 8.713 6.535 15.248s-2.723 12.525-7.624 16.881c-5.446 4.357-12.525 6.535-22.327 6.535q-14.703 0-22.871-6.535-8.169-6.534-8.169-17.97h14.704zm106.732-51.188H238v74.059h-14.703v-62.079l-14.158 62.079h-15.248l-14.158-62.079v62.079H165.03v-74.06h22.326l15.248 58.268z"/></g><defs><clipPath id="clip0_382_469"><path fill="#fff" d="M0 0h256v256H0z"/></clipPath></defs></svg>
